images/50171112.svg

<?xml version="1.0" encoding="UTF-8"?>
<svg xmlns="http://www.w3.org/2000/svg" xmlns:xlink="http://www.w3.org/1999/xlink" width="300pt" height="300pt" viewBox="0 0 300 300" version="1.1">
<defs>
<g>
<symbol overflow="visible" id="glyph0-0">
<path style="stroke:none;" d="M 0.546875 1.9375 L 0.546875 -7.75 L 6.046875 -7.75 L 6.046875 1.9375 Z M 1.171875 1.328125 L 5.4375 1.328125 L 5.4375 -7.140625 L 1.171875 -7.140625 Z M 1.171875 1.328125 "/>
</symbol>
<symbol overflow="visible" id="glyph0-1">
<path style="stroke:none;" d="M 4.328125 -7.28125 C 3.546875 -7.28125 2.921875 -6.984375 2.453125 -6.390625 C 1.992188 -5.804688 1.765625 -5.007812 1.765625 -4 C 1.765625 -2.988281 1.992188 -2.1875 2.453125 -1.59375 C 2.921875 -1.007812 3.546875 -0.71875 4.328125 -0.71875 C 5.117188 -0.71875 5.742188 -1.007812 6.203125 -1.59375 C 6.660156 -2.1875 6.890625 -2.988281 6.890625 -4 C 6.890625 -5.007812 6.660156 -5.804688 6.203125 -6.390625 C 5.742188 -6.984375 5.117188 -7.28125 4.328125 -7.28125 Z M 4.328125 -8.171875 C 5.453125 -8.171875 6.351562 -7.789062 7.03125 -7.03125 C 7.707031 -6.28125 8.046875 -5.269531 8.046875 -4 C 8.046875 -2.738281 7.707031 -1.726562 7.03125 -0.96875 C 6.351562 -0.21875 5.453125 0.15625 4.328125 0.15625 C 3.203125 0.15625 2.300781 -0.21875 1.625 -0.96875 C 0.957031 -1.71875 0.625 -2.726562 0.625 -4 C 0.625 -5.269531 0.957031 -6.28125 1.625 -7.03125 C 2.300781 -7.789062 3.203125 -8.171875 4.328125 -8.171875 Z M 4.328125 -8.171875 "/>
</symbol>
<symbol overflow="visible" id="glyph0-2">
<path style="stroke:none;" d="M 1.078125 -8.015625 L 2.546875 -8.015625 L 6.09375 -1.3125 L 6.09375 -8.015625 L 7.15625 -8.015625 L 7.15625 0 L 5.6875 0 L 2.125 -6.703125 L 2.125 0 L 1.078125 0 Z M 1.078125 -8.015625 "/>
</symbol>
<symbol overflow="visible" id="glyph0-3">
<path style="stroke:none;" d="M 1.078125 -8.015625 L 2.171875 -8.015625 L 2.171875 -4.734375 L 6.109375 -4.734375 L 6.109375 -8.015625 L 7.1875 -8.015625 L 7.1875 0 L 6.109375 0 L 6.109375 -3.8125 L 2.171875 -3.8125 L 2.171875 0 L 1.078125 0 Z M 1.078125 -8.015625 "/>
</symbol>
</g>
</defs>
<g id="surface15401">
<rect x="0" y="0" width="300" height="300" style="fill:rgb(100%,100%,100%);fill-opacity:1;stroke:none;"/>
<path style="fill:none;stroke-width:1.2;stroke-linecap:butt;stroke-linejoin:miter;stroke:rgb(100%,0%,0%);stroke-opacity:1;stroke-miterlimit:10;" d="M 60.15625 146.917969 L 68.203125 157.460938 "/>
<path style="fill:none;stroke-width:1.2;stroke-linecap:butt;stroke-linejoin:miter;stroke:rgb(0%,0%,0%);stroke-opacity:1;stroke-miterlimit:10;" d="M 68.203125 157.460938 L 76.25 168 "/>
<path style="fill:none;stroke-width:1.2;stroke-linecap:butt;stroke-linejoin:miter;stroke:rgb(0%,0%,0%);stroke-opacity:1;stroke-miterlimit:10;" d="M 75.234375 125.097656 L 67.695312 136.007812 "/>
<path style="fill:none;stroke-width:1.2;stroke-linecap:butt;stroke-linejoin:miter;stroke:rgb(100%,0%,0%);stroke-opacity:1;stroke-miterlimit:10;" d="M 67.695312 136.007812 L 60.15625 146.917969 "/>
<path style=" stroke:none;fill-rule:nonzero;fill:rgb(100%,100%,100%);fill-opacity:1;" d="M 56.15625 140.417969 L 65.15625 140.417969 L 65.15625 153.417969 L 56.15625 153.417969 Z M 56.15625 140.417969 "/>
<g style="fill:rgb(100%,0%,0%);fill-opacity:1;">
  <use xlink:href="#glyph0-1" x="56.15625" y="150.319336"/>
</g>
<path style="fill:none;stroke-width:1.2;stroke-linecap:butt;stroke-linejoin:miter;stroke:rgb(0%,0%,0%);stroke-opacity:1;stroke-miterlimit:10;" d="M 76.25 168 L 68.652344 193.410156 "/>
<path style="fill:none;stroke-width:1.2;stroke-linecap:butt;stroke-linejoin:miter;stroke:rgb(0%,0%,0%);stroke-opacity:1;stroke-miterlimit:10;" d="M 76.25 168 L 101.273438 159.210938 "/>
<path style="fill:none;stroke-width:1.2;stroke-linecap:butt;stroke-linejoin:miter;stroke:rgb(0%,0%,0%);stroke-opacity:1;stroke-miterlimit:10;" d="M 76.683594 161.234375 L 96.703125 154.199219 "/>
<path style="fill:none;stroke-width:1.2;stroke-linecap:butt;stroke-linejoin:miter;stroke:rgb(0%,0%,0%);stroke-opacity:1;stroke-miterlimit:10;" d="M 66.382812 195.554688 L 75.488281 205.195312 "/>
<path style="fill:none;stroke-width:1.2;stroke-linecap:butt;stroke-linejoin:miter;stroke:rgb(100%,0%,0%);stroke-opacity:1;stroke-miterlimit:10;" d="M 75.488281 205.195312 L 84.589844 214.839844 "/>
<path style="fill:none;stroke-width:1.2;stroke-linecap:butt;stroke-linejoin:miter;stroke:rgb(0%,0%,0%);stroke-opacity:1;stroke-miterlimit:10;" d="M 70.921875 191.269531 L 80.023438 200.910156 "/>
<path style="fill:none;stroke-width:1.2;stroke-linecap:butt;stroke-linejoin:miter;stroke:rgb(100%,0%,0%);stroke-opacity:1;stroke-miterlimit:10;" d="M 80.023438 200.910156 L 89.128906 210.554688 "/>
<path style="fill:none;stroke-width:1.2;stroke-linecap:butt;stroke-linejoin:miter;stroke:rgb(0%,0%,0%);stroke-opacity:1;stroke-miterlimit:10;" d="M 68.652344 193.410156 L 55.75 196.472656 "/>
<path style="fill:none;stroke-width:1.2;stroke-linecap:butt;stroke-linejoin:miter;stroke:rgb(0%,0%,100%);stroke-opacity:1;stroke-miterlimit:10;" d="M 55.75 196.472656 L 42.847656 199.539062 "/>
<path style=" stroke:none;fill-rule:nonzero;fill:rgb(100%,100%,100%);fill-opacity:1;" d="M 82.859375 206.195312 L 91.859375 206.195312 L 91.859375 219.195312 L 82.859375 219.195312 Z M 82.859375 206.195312 "/>
<g style="fill:rgb(100%,0%,0%);fill-opacity:1;">
  <use xlink:href="#glyph0-1" x="82.859375" y="216.09668"/>
</g>
<path style="fill:none;stroke-width:1.2;stroke-linecap:butt;stroke-linejoin:miter;stroke:rgb(0%,0%,100%);stroke-opacity:1;stroke-miterlimit:10;" d="M 42.847656 199.539062 L 39.046875 212.242188 "/>
<path style="fill:none;stroke-width:1.2;stroke-linecap:butt;stroke-linejoin:miter;stroke:rgb(0%,0%,0%);stroke-opacity:1;stroke-miterlimit:10;" d="M 39.046875 212.242188 L 35.25 224.949219 "/>
<path style=" stroke:none;fill-rule:nonzero;fill:rgb(100%,100%,100%);fill-opacity:1;" d="M 34.847656 193.039062 L 51.847656 193.039062 L 51.847656 206.039062 L 34.847656 206.039062 Z M 34.847656 193.039062 "/>
<g style="fill:rgb(0%,0%,100%);fill-opacity:1;">
  <use xlink:href="#glyph0-2" x="34.847656" y="202.94043"/>
  <use xlink:href="#glyph0-3" x="42.831055" y="202.94043"/>
</g>
<path style="fill:none;stroke-width:1.2;stroke-linecap:butt;stroke-linejoin:miter;stroke:rgb(0%,0%,0%);stroke-opacity:1;stroke-miterlimit:10;" d="M 101.273438 159.210938 L 112.183594 166.75 "/>
<path style="fill:none;stroke-width:1.2;stroke-linecap:butt;stroke-linejoin:miter;stroke:rgb(0%,0%,100%);stroke-opacity:1;stroke-miterlimit:10;" d="M 112.183594 166.75 L 123.09375 174.289062 "/>
<path style="fill:none;stroke-width:1.2;stroke-linecap:butt;stroke-linejoin:miter;stroke:rgb(0%,0%,0%);stroke-opacity:1;stroke-miterlimit:10;" d="M 101.273438 159.210938 L 100.644531 132.695312 "/>
<path style="fill:none;stroke-width:1.2;stroke-linecap:butt;stroke-linejoin:miter;stroke:rgb(0%,0%,100%);stroke-opacity:1;stroke-miterlimit:10;" d="M 123.09375 174.289062 L 135.078125 168.609375 "/>
<path style="fill:none;stroke-width:1.2;stroke-linecap:butt;stroke-linejoin:miter;stroke:rgb(0%,0%,0%);stroke-opacity:1;stroke-miterlimit:10;" d="M 135.078125 168.609375 L 147.058594 162.929688 "/>
<path style=" stroke:none;fill-rule:nonzero;fill:rgb(100%,100%,100%);fill-opacity:1;" d="M 115.09375 167.789062 L 132.09375 167.789062 L 132.09375 180.789062 L 115.09375 180.789062 Z M 115.09375 167.789062 "/>
<g style="fill:rgb(0%,0%,100%);fill-opacity:1;">
  <use xlink:href="#glyph0-2" x="115.09375" y="177.69043"/>
  <use xlink:href="#glyph0-3" x="123.077148" y="177.69043"/>
</g>
<path style="fill:none;stroke-width:1.2;stroke-linecap:butt;stroke-linejoin:miter;stroke:rgb(0%,0%,0%);stroke-opacity:1;stroke-miterlimit:10;" d="M 150.171875 163.183594 L 151.242188 149.964844 "/>
<path style="fill:none;stroke-width:1.2;stroke-linecap:butt;stroke-linejoin:miter;stroke:rgb(100%,0%,0%);stroke-opacity:1;stroke-miterlimit:10;" d="M 151.242188 149.964844 L 152.316406 136.746094 "/>
<path style="fill:none;stroke-width:1.2;stroke-linecap:butt;stroke-linejoin:miter;stroke:rgb(0%,0%,0%);stroke-opacity:1;stroke-miterlimit:10;" d="M 143.949219 162.675781 L 145.023438 149.460938 "/>
<path style="fill:none;stroke-width:1.2;stroke-linecap:butt;stroke-linejoin:miter;stroke:rgb(100%,0%,0%);stroke-opacity:1;stroke-miterlimit:10;" d="M 145.023438 149.460938 L 146.097656 136.242188 "/>
<path style="fill:none;stroke-width:1.2;stroke-linecap:butt;stroke-linejoin:miter;stroke:rgb(0%,0%,0%);stroke-opacity:1;stroke-miterlimit:10;" d="M 147.058594 162.929688 L 157.96875 170.46875 "/>
<path style="fill:none;stroke-width:1.2;stroke-linecap:butt;stroke-linejoin:miter;stroke:rgb(0%,0%,100%);stroke-opacity:1;stroke-miterlimit:10;" d="M 157.96875 170.46875 L 168.878906 178.007812 "/>
<path style=" stroke:none;fill-rule:nonzero;fill:rgb(100%,100%,100%);fill-opacity:1;" d="M 145.207031 129.996094 L 154.207031 129.996094 L 154.207031 142.996094 L 145.207031 142.996094 Z M 145.207031 129.996094 "/>
<g style="fill:rgb(100%,0%,0%);fill-opacity:1;">
  <use xlink:href="#glyph0-1" x="145.207031" y="139.897461"/>
</g>
<path style="fill:none;stroke-width:1.2;stroke-linecap:butt;stroke-linejoin:miter;stroke:rgb(0%,0%,100%);stroke-opacity:1;stroke-miterlimit:10;" d="M 168.878906 178.007812 L 180.863281 172.328125 "/>
<path style="fill:none;stroke-width:1.2;stroke-linecap:butt;stroke-linejoin:miter;stroke:rgb(0%,0%,0%);stroke-opacity:1;stroke-miterlimit:10;" d="M 180.863281 172.328125 L 192.847656 166.648438 "/>
<path style=" stroke:none;fill-rule:nonzero;fill:rgb(100%,100%,100%);fill-opacity:1;" d="M 160.878906 171.507812 L 177.878906 171.507812 L 177.878906 184.507812 L 160.878906 184.507812 Z M 160.878906 171.507812 "/>
<g style="fill:rgb(0%,0%,100%);fill-opacity:1;">
  <use xlink:href="#glyph0-2" x="160.878906" y="181.40918"/>
  <use xlink:href="#glyph0-3" x="168.862305" y="181.40918"/>
</g>
<path style="fill:none;stroke-width:1.2;stroke-linecap:butt;stroke-linejoin:miter;stroke:rgb(0%,0%,0%);stroke-opacity:1;stroke-miterlimit:10;" d="M 192.847656 166.648438 L 214.667969 181.726562 "/>
<path style="fill:none;stroke-width:1.2;stroke-linecap:butt;stroke-linejoin:miter;stroke:rgb(0%,0%,0%);stroke-opacity:1;stroke-miterlimit:10;" d="M 198.578125 163.023438 L 216.03125 175.085938 "/>
<path style="fill:none;stroke-width:1.2;stroke-linecap:butt;stroke-linejoin:miter;stroke:rgb(0%,0%,0%);stroke-opacity:1;stroke-miterlimit:10;" d="M 194.996094 140.214844 L 192.847656 166.648438 "/>
<path style="fill:none;stroke-width:1.2;stroke-linecap:butt;stroke-linejoin:miter;stroke:rgb(0%,0%,0%);stroke-opacity:1;stroke-miterlimit:10;" d="M 214.667969 181.726562 L 238.632812 170.371094 "/>
<path style="fill:none;stroke-width:1.2;stroke-linecap:butt;stroke-linejoin:miter;stroke:rgb(0%,0%,0%);stroke-opacity:1;stroke-miterlimit:10;" d="M 238.632812 170.371094 L 240.78125 143.933594 "/>
<path style="fill:none;stroke-width:1.2;stroke-linecap:butt;stroke-linejoin:miter;stroke:rgb(0%,0%,0%);stroke-opacity:1;stroke-miterlimit:10;" d="M 232.628906 167.222656 L 234.347656 146.074219 "/>
<path style="fill:none;stroke-width:1.2;stroke-linecap:butt;stroke-linejoin:miter;stroke:rgb(0%,0%,0%);stroke-opacity:1;stroke-miterlimit:10;" d="M 240.78125 143.933594 L 218.960938 128.855469 "/>
<path style="fill:none;stroke-width:1.2;stroke-linecap:butt;stroke-linejoin:miter;stroke:rgb(0%,0%,0%);stroke-opacity:1;stroke-miterlimit:10;" d="M 240.78125 143.933594 L 264.75 132.578125 "/>
<path style="fill:none;stroke-width:1.2;stroke-linecap:butt;stroke-linejoin:miter;stroke:rgb(0%,0%,0%);stroke-opacity:1;stroke-miterlimit:10;" d="M 218.960938 128.855469 L 194.996094 140.214844 "/>
<path style="fill:none;stroke-width:1.2;stroke-linecap:butt;stroke-linejoin:miter;stroke:rgb(0%,0%,0%);stroke-opacity:1;stroke-miterlimit:10;" d="M 219.238281 135.632812 L 200.0625 144.71875 "/>
<path style="fill:none;stroke-width:1.2;stroke-linecap:butt;stroke-linejoin:miter;stroke:rgb(0%,0%,0%);stroke-opacity:1;stroke-miterlimit:10;" d="M 100.644531 132.695312 L 75.234375 125.097656 "/>
<path style="fill:none;stroke-width:1.2;stroke-linecap:butt;stroke-linejoin:miter;stroke:rgb(0%,0%,0%);stroke-opacity:1;stroke-miterlimit:10;" d="M 96.316406 137.914062 L 75.988281 131.835938 "/>
<path style="fill:none;stroke-width:1.2;stroke-linecap:butt;stroke-linejoin:miter;stroke:rgb(0%,0%,0%);stroke-opacity:1;stroke-miterlimit:10;" d="M 75.234375 125.097656 L 66.445312 100.074219 "/>
<path style="fill:none;stroke-width:1.2;stroke-linecap:butt;stroke-linejoin:miter;stroke:rgb(0%,0%,0%);stroke-opacity:1;stroke-miterlimit:10;" d="M 66.445312 100.074219 L 91.46875 91.285156 "/>
<path style="fill:none;stroke-width:1.2;stroke-linecap:butt;stroke-linejoin:miter;stroke:rgb(0%,0%,0%);stroke-opacity:1;stroke-miterlimit:10;" d="M 66.445312 100.074219 L 41.421875 108.863281 "/>
<path style="fill:none;stroke-width:1.2;stroke-linecap:butt;stroke-linejoin:miter;stroke:rgb(0%,0%,0%);stroke-opacity:1;stroke-miterlimit:10;" d="M 66.445312 100.074219 L 57.652344 75.050781 "/>
</g>
</svg>

<svg xmlns="http://www.w3.org/2000/svg" xmlns:xlink="http://www.w3.org/1999/xlink" width="300pt" height="300pt" viewBox="0 0 300 300"><defs><symbol overflow="visible"><path d="M.547 1.938V-7.75h5.5v9.688zm.625-.61h4.266v-8.47H1.171zm0 0"/></symbol><symbol overflow="visible" id="a"><path d="M4.328-7.28c-.78 0-1.406.296-1.875.89-.46.585-.687 1.382-.687 2.39 0 1.012.226 1.813.687 2.406.47.586 1.094.875 1.875.875.79 0 1.414-.288 1.875-.874.457-.593.688-1.394.688-2.406 0-1.008-.23-1.805-.687-2.39-.46-.594-1.086-.89-1.875-.89zm0-.892c1.125 0 2.024.383 2.703 1.14C7.708-6.28 8.048-5.27 8.048-4c0 1.262-.34 2.273-1.016 3.03C6.353-.22 5.454.157 4.33.157S2.3-.22 1.625-.97c-.668-.75-1-1.757-1-3.03 0-1.27.332-2.28 1-3.03.676-.76 1.578-1.142 2.703-1.142zm0 0"/></symbol><symbol overflow="visible" id="b"><path d="M1.078-8.016h1.47l3.546 6.704v-6.704h1.062V0H5.688L2.124-6.703V0H1.078zm0 0"/></symbol><symbol overflow="visible" id="c"><path d="M1.078-8.016h1.094v3.282H6.11v-3.282h1.077V0H6.11v-3.813H2.17V0H1.078zm0 0"/></symbol></defs><g><path fill="#fff" d="M0 0h300v300H0z"/><path d="M60.156 146.918l8.047 10.543" stroke-width="1.2" stroke="#f00" stroke-miterlimit="10" fill="none"/><path d="M68.203 157.46L76.25 168M75.234 125.098l-7.54 10.91" stroke-width="1.2" stroke="#000" stroke-miterlimit="10" fill="none"/><path d="M67.695 136.008l-7.54 10.91" stroke-width="1.2" stroke="#f00" stroke-miterlimit="10" fill="none"/><path d="M56.156 140.418h9v13h-9zm0 0" fill="#fff"/><use xlink:href="#a" x="56.156" y="150.319" fill="#f00"/><path d="M76.25 168l-7.598 25.41M76.25 168l25.023-8.79M76.684 161.234l20.02-7.035M66.383 195.555l9.105 9.64" stroke-width="1.2" stroke="#000" stroke-miterlimit="10" fill="none"/><path d="M75.488 205.195l9.102 9.645" stroke-width="1.2" stroke="#f00" stroke-miterlimit="10" fill="none"/><path d="M70.922 191.27l9.1 9.64" stroke-width="1.2" stroke="#000" stroke-miterlimit="10" fill="none"/><path d="M80.023 200.91l9.106 9.645" stroke-width="1.2" stroke="#f00" stroke-miterlimit="10" fill="none"/><path d="M68.652 193.41l-12.902 3.063" stroke-width="1.2" stroke="#000" stroke-miterlimit="10" fill="none"/><path d="M55.75 196.473l-12.902 3.066" stroke-width="1.2" stroke="#00f" stroke-miterlimit="10" fill="none"/><path d="M82.86 206.195h9v13h-9zm0 0" fill="#fff"/><use xlink:href="#a" x="82.859" y="216.097" fill="#f00"/><path d="M42.848 199.54l-3.8 12.702" stroke-width="1.2" stroke="#00f" stroke-miterlimit="10" fill="none"/><path d="M39.047 212.242L35.25 224.95" stroke-width="1.2" stroke="#000" stroke-miterlimit="10" fill="none"/><path d="M34.848 193.04h17v13h-17zm0 0" fill="#fff"/><g fill="#00f"><use xlink:href="#b" x="34.848" y="202.94"/><use xlink:href="#c" x="42.831" y="202.94"/></g><path d="M101.273 159.21l10.91 7.54" stroke-width="1.2" stroke="#000" stroke-miterlimit="10" fill="none"/><path d="M112.184 166.75l10.91 7.54" stroke-width="1.2" stroke="#00f" stroke-miterlimit="10" fill="none"/><path d="M101.273 159.21l-.628-26.515" stroke-width="1.2" stroke="#000" stroke-miterlimit="10" fill="none"/><path d="M123.094 174.29l11.984-5.68" stroke-width="1.2" stroke="#00f" stroke-miterlimit="10" fill="none"/><path d="M135.078 168.61l11.98-5.68" stroke-width="1.2" stroke="#000" stroke-miterlimit="10" fill="none"/><path d="M115.094 167.79h17v13h-17zm0 0" fill="#fff"/><g fill="#00f"><use xlink:href="#b" x="115.094" y="177.69"/><use xlink:href="#c" x="123.077" y="177.69"/></g><path d="M150.172 163.184l1.07-13.22" stroke-width="1.2" stroke="#000" stroke-miterlimit="10" fill="none"/><path d="M151.242 149.965l1.074-13.22" stroke-width="1.2" stroke="#f00" stroke-miterlimit="10" fill="none"/><path d="M143.95 162.676l1.073-13.215" stroke-width="1.2" stroke="#000" stroke-miterlimit="10" fill="none"/><path d="M145.023 149.46l1.075-13.218" stroke-width="1.2" stroke="#f00" stroke-miterlimit="10" fill="none"/><path d="M147.06 162.93l10.91 7.54" stroke-width="1.2" stroke="#000" stroke-miterlimit="10" fill="none"/><path d="M157.97 170.47l10.91 7.538" stroke-width="1.2" stroke="#00f" stroke-miterlimit="10" fill="none"/><path d="M145.207 129.996h9v13h-9zm0 0" fill="#fff"/><use xlink:href="#a" x="145.207" y="139.897" fill="#f00"/><path d="M168.88 178.008l11.983-5.68" stroke-width="1.2" stroke="#00f" stroke-miterlimit="10" fill="none"/><path d="M180.863 172.328l11.985-5.68" stroke-width="1.2" stroke="#000" stroke-miterlimit="10" fill="none"/><path d="M160.88 171.508h17v13h-17zm0 0" fill="#fff"/><g fill="#00f"><use xlink:href="#b" x="160.879" y="181.409"/><use xlink:href="#c" x="168.862" y="181.409"/></g><path d="M192.848 166.648l21.82 15.08M198.578 163.023l17.453 12.063M194.996 140.215l-2.148 26.433M214.668 181.727l23.965-11.356M238.633 170.37l2.148-26.436M232.63 167.223l1.718-21.15M240.78 143.934l-21.82-15.08M240.78 143.934l23.97-11.356M218.96 128.855l-23.964 11.36M219.238 135.633l-19.175 9.086M100.645 132.695l-25.41-7.597M96.316 137.914l-20.328-6.078M75.234 125.098l-8.79-25.024M66.445 100.074l25.024-8.79M66.445 100.074l-25.023 8.79M66.445 100.074L57.652 75.05" stroke-width="1.2" stroke="#000" stroke-miterlimit="10" fill="none"/></g></svg>
